usr/share/icons/biglinux-icons-material-dark/symbolic/status/network-vpn-no-route-symbolic.svg

<svg width="16" height="16" version="1.1" xmlns="http://www.w3.org/2000/svg">
 <path d="m7.998 0c-0.27102 0-0.54135 0.061232-0.81445 0.15625a1.0001 1.0001 0 0 0-0.037109 0.013672c-1.1343 0.44698-3.7671 1.3187-5.1914 1.8867a1.0001 1.0001 0 0 0-0.023438 0.0097656c-0.22994 0.098563-0.55638 0.30917-0.73828 0.63867-0.1819 0.3295-0.18925 0.61851-0.18945 0.84766l-0.0039062 5.3418c-0.001241 1.4947 0.47441 2.739 1.4727 3.709 0.99665 0.96839 2.3954 1.7697 4.4707 3.0352 0.00124 7.68e-4 0.0026662 0.001153 0.0039062 0.001953 0.00166 1e-3 0.0022363 8.91e-4 0.0039063 0.001953 0.31446 0.19425 0.6773 0.35421 1.0391 0.35547l0.0019531 0.001953h0.0019531l0.0019532-0.001953c0.35749-0.0013 0.73683-0.16347 1.0527-0.35938h0.0019531c2.0468-1.2375 3.4453-2.0341 4.4473-3.0059 1.0041-0.97382 1.4968-2.2275 1.498-3.7363l0.003906-5.3418c1.93e-4 -0.22992-0.00385-0.52168-0.19141-0.85742-0.18756-0.33575-0.53463-0.55217-0.7832-0.64648a1.0001 1.0001 0 0 0-0.019532-0.0058593c-1.3647-0.48562-3.9846-1.4171-5.1465-1.875a1.0001 1.0001 0 0 0-0.039062-0.013672c-0.27311-0.09503-0.55163-0.15625-0.82227-0.15625zm0 1c0.13725 0 0.28371 0.028341 0.49414 0.10156 1.2077 0.47595 3.8144 1.3997 5.1777 1.8848 0.26536 0.10068 0.33035 0.2369 0.33008 0.56641l-0.003906 5.3418c-0.0023 2.6818-1.3553 3.4048-5.4727 5.8945-0.2641 0.16398-0.39277 0.21051-0.5293 0.21094-0.12747-4.44e-4 -0.25937-0.046995-0.52344-0.21094-4.1723-2.5445-5.4729-3.2311-5.4707-5.8945l0.0039062-5.3418c2.889e-4 -0.32951 0.064112-0.45658 0.32031-0.56641 1.3542-0.54003 3.9817-1.4088 5.1895-1.8848 0.21045-0.073221 0.35629-0.10156 0.48438-0.10156z" fill="#dedede"/>
 <path d="m8 4c1.1 0 2 0.895 2 2s-0.9 2-2 2v1h-1v-2h1c0.55 0 1-0.448 1-1s-0.45-1-1-1-1 0.448-1 1h-1c0-1.105 0.9-2 2-2zm-1 6h1v1h-1z" fill="#dedede"/>
</svg>

<svg xmlns="http://www.w3.org/2000/svg" width="16" height="16">
<path fill="#363636" d="M7.998 0a2.5 2.5 0 0 0-.814.156L7.146.17C6.012.617 3.38 1.489 1.955 2.057l-.023.01c-.23.098-.557.309-.739.638-.182.33-.189.619-.19.848L1 8.895c-.001 1.494.474 2.739 1.473 3.709.996.968 2.395 1.77 4.47 3.035q.003 0 .004.002.003 0 .004.002c.315.194.677.354 1.04.355l.001.002h.002l.002-.002c.358-.001.737-.163 1.053-.36h.002c2.047-1.237 3.445-2.033 4.447-3.005 1.004-.974 1.497-2.228 1.498-3.736L15 3.555c0-.23-.004-.522-.191-.858-.188-.335-.535-.552-.784-.646l-.02-.006C12.642 1.559 10.022.628 8.86.17L8.82.156A2.5 2.5 0 0 0 7.998 0m0 1c.137 0 .284.028.494.102 1.208.476 3.815 1.4 5.178 1.884.265.101.33.237.33.567l-.004 5.342c-.002 2.681-1.355 3.404-5.473 5.894-.264.164-.392.21-.529.211-.127 0-.26-.047-.523-.21C3.298 12.244 1.998 11.557 2 8.894l.004-5.342c0-.33.064-.457.32-.567 1.354-.54 3.982-1.408 5.19-1.884A1.5 1.5 0 0 1 7.998 1"/>
<path fill="#363636" d="M8 4c1.1 0 2 .895 2 2s-.9 2-2 2v1H7V7h1c.55 0 1-.448 1-1s-.45-1-1-1-1 .448-1 1H6c0-1.105.9-2 2-2m-1 6h1v1H7z"/>
</svg>
